X: 772
T: the Penniless Traveller.
R: jig
B: O'Neill's 1850 "Music of Ireland" #772
Z: Stephen Foy (shf@access.digex.net)
%abc 1.6
M: 6/8
K: C
G |\
Gcc cBA | G>AG GEF | Gcc c2d | ecA A2G |\
Gcc cBA | G>AG GEF | Gcc Bdf | ecc c2 :|
|: (e/f/) |\
gec cBc | AFF F2 (f/g/) | afd dec | BGG G2G |\
Gcc cBA | G>AG GEF | Gcc Bdf | ecc c2 :|
